!!!!SEGMENT: pl-kk--kk-i-7--001_anonim--rorate-caeli.krn
!!!cenid: 16xx:791
!!!COM: Anonim
!!!COM-rismid: pe30004985
!!!CDT:
!!!CNT:
!!!OTL: Rorate caeli
!!!PDT:
!!!AGN: Sacred
!!!SMS-siglum: PL-Kk
!!!SMS-shelfmark: Kk.I.7
!!!SMS-shelfwork: 001 W
!!!SMS-variant:
!!!SMS-altvar:
!!!NIFC-rismid: 300258078
!!!URL-scan: http://repozytorium.nifc.pl/skany/pl-kk-nut--i-7
!!!ONB-nifc: UWAGA: C (skan 0003-0004, s. 1-2), A (0090-0091, s. 1-2), T(0168-0169, s. 1-2), B(0255-0256, s.1-2). Rorate+Benedixisti+Gloria Patri
!!!key:
**kern	**text	**kern	**text	**kern	**text	**kern	**text
*part4	*part4	*part3	*part3	*part2	*part2	*part1	*part1
*staff4	*staff4	*staff3	*staff3	*staff2	*staff2	*staff1	*staff1
*Iempty	*	*Itenor	*	*Ialto	*	*Ivox	*
*I"[Basso]	*	*I"[Tenore]	*	*I"[Alto]	*	*I"[Canto]	*
*I'B	*	*I'T	*	*I'A	*	*I'C	*
*clefF4	*	*clefC4	*	*clefC4	*	*clefC3	*
*k[]	*	*k[]	*	*k[]	*	*k[]	*
*d:	*	*d:	*	*d:	*	*d:	*
*M2/1	*	*M2/1	*	*M2/1	*	*M2/1	*
*met(c|)	*	*met(c|)	*	*met(c|)	*	*met(c|)	*
=1-	=1-	=1-	=1-	=1-	=1-	=1-	=1-
*all\right	*	*all\right	*	*all\right	*	*all\right	*
*lig	*	*	*	*	*	*	*
!LO:TX:a:t=Initiale.	!	!	!	!	!	!	!
!LO:TX:a:t=Parte 1ma	!	!LO:TX:a:t=Parte 1ma	!	!LO:TX:a:t=Parte 1ma	!	!LO:TX:a:t=Parte 1ma	!
1C	Ro-	1G	Ro-	1c	Ro-	1e	Ro-
!	!	!	!	!	!	!LO:TX:t=P:problem=2\right&colon; global	!
*	*	*	*	*	*	*2\right	*
1D	.	2F/	-ra-	2.A/	-ra-	2.f\	-ra-
.	.	4D/	.	.	.	.	.
!	!	!LO:TX:t=P:problem=kreska pseudotaktowa	!	!LO:TX:t=P:problem=kreska pseudotaktowa	!	!LO:TX:t=P:problem=kreska pseudotaktowa	!
.	.	4E/	.	4G/	.	4e\	.
*Xlig	*	*	*	*	*	*	*
=2-	=2-	=2-	=2-	=2-	=2-	=2-	=2-
*lig	*	*	*	*	*	*	*
1D	-ra-	4F/	.	1F	.	4d\	.
.	.	4G/	.	.	.	4e\	.
.	.	4A/	.	.	.	1f	.
.	.	4B/	.	.	.	.	.
1C	.	1c	.	2G/	-te	.	.
*	*	*	*	*2\right	*	*	*
!	!	!	!	!	!	!LO:TX:t=P:problem=kreska pseudotaktowa	!
.	.	.	.	2.c\	cae-	2e\	.
*Xlig	*	*	*	*	*	*	*
=3-	=3-	=3-	=3-	=3-	=3-	=3-	=3-
!	!	!LO:TX:t=P:problem=kreska pseudotaktowa	!	!	!	!	!
2FF,</	-te	1A,<	-te	.	.	1f,<	-te
.	.	.	.	4B-X\	.	.	.
*2\right	*	*	*	*	*	*	*
!LO:TX:t=P:problem=kreska pseudotaktowa	!	!	!	!	!	!	!
2.F\	cae-	.	.	4A/	.	.	.
!	!	!	!	!LO:TX:t=P:problem=kreska pseudotaktowa	!	!	!
.	.	.	.	4G/	.	.	.
*	*	*lig	*	*	*	*	*
.	.	1A	cae-	2.F/	.	2f\	cae-
4E\	.	.	.	.	.	.	.
4D/	.	.	.	.	.	1a	.
4C/	.	.	.	4E/	.	.	.
=4-	=4-	=4-	=4-	=4-	=4-	=4-	=4-
4BB/	.	1B	.	2D/	.	.	.
4AA/	.	.	.	.	.	.	.
!LO:TX:t=P:problem=kreska pseudotaktowa	!	!	!	!LO:TX:t=P:problem=kreska pseudotaktowa	!	!LO:TX:t=P:problem=kreska pseudotaktowa	!
2BB/	.	.	.	2d\	.	2g#X\	.
*	*	*Xlig	*	*	*	*	*
*	*	*lig	*	*	*	*	*
2AA/	.	1c	.	2.e\	.	2a\	.
2.A\	.	.	.	.	.	2.e\	.
.	.	.	.	4d\	.	.	.
=5-	=5-	=5-	=5-	=5-	=5-	=5-	=5-
.	.	1A	.	4c\	.	.	.
4G\	.	.	.	4Bny\	.	8f\L	.
.	.	.	.	.	.	8gny\J	.
4F\	.	.	.	4A\	.	4a\	.
!LO:TX:t=P:problem=kreska pseudotaktowa	!	!	!	!	!	!LO:TX:t=P:problem=kreska pseudotaktowa	!
4E\	.	.	.	8B\L	.	4g\	.
!	!	!	!	!LO:TX:t=P:problem=kreska pseudotaktowa	!	!	!
.	.	.	.	8c\J	.	.	.
*	*	*Xlig	*	*	*	*	*
*	*	*lig	*	*	*	*	*
2D\	.	1A	-li	1.d	.	4f\	.
.	.	.	.	.	.	4e\	.
2F\	.	.	.	.	.	2d\	.
=6-	=6-	=6-	=6-	=6-	=6-	=6-	=6-
!LO:TX:t=P:problem=kreska pseudotaktowa	!	!LO:TX:t=P:problem=kreska pseudotaktowa	!	!	!	!	!
*	*	*	*	*	*	*lig	*
1E	.	1G	.	.	.	1e	.
!	!	!	!	!LO:TX:t=P:problem=kreska pseudotaktowa	!	!	!
!	!	!	!	!LO:TX:a:t=P:problem=# above	!	!	!
.	.	.	.	2c#X\	.	.	.
*	*	*Xlig	*	*	*	*	*
*	*	*lig	*	*	*	*	*
2D,<\	li	1A	cae-	2d\	.	1f	.
2.F\	de	.	.	4cny\	.	.	.
!	!	!	!	!LO:TX:t=P:problem=kreska pseudotaktowa	!	!	!
.	.	.	.	4B\	.	.	.
*	*	*	*	*	*	*Xlig	*
=7-	=7-	=7-	=7-	=7-	=7-	=7-	=7-
.	.	1c	.	2A/	.	2rf	.
4E\	.	.	.	.	.	.	.
!	!	!	!	!	!	!LO:TX:t=P:problem=kreska pseudotaktowa	!
4F\	.	.	.	2f\	.	2a\	-li
!LO:TX:t=P:problem=kreska pseudotaktowa	!	!	!	!	!	!	!
4G\	.	.	.	.	.	.	.
*	*	*Xlig	*	*	*	*	*
*	*	*lig	*	*	*	*	*
4A\	.	1c	-li	0e	.	2a\	de
4AA/	.	.	.	.	.	.	.
4C/	.	.	.	.	.	1a	Su-
!LO:TX:t=P:problem=kreska pseudotaktowa	!	!	!	!	!	!	!
4D/	.	.	.	.	.	.	.
=8-	=8-	=8-	=8-	=8-	=8-	=8-	=8-
!	!	!LO:TX:t=P:problem=kreska pseudotaktowa	!	!	!	!	!
2.E\	.	1B	.	.	.	.	.
!	!	!	!	!	!	!LO:TX:t=P:problem=kreska pseudotaktowa	!
.	.	.	.	.	.	2g\	.
*custos:C	*	*	*	*	*	*	*
4D/	.	.	.	.	.	.	.
*	*	*Xlig	*	*	*	*	*
!LO:LB:g=original	!	!	!	!	!	!	!
*	*	*lig	*	*	*	*	*
*	*	*	*	*custos:c	*	*	*
4C/	.	1c	de	2e\	-li	1.a	.
4AA/	.	.	.	.	.	.	.
!	!	!	!	!LO:LB:g=original	!	!	!
4A\	.	.	.	1c\	de	.	.
!LO:TX:t=P:problem=kreska pseudotaktowa	!	!	!	!	!	!	!
4G\	.	.	.	.	.	.	.
=9-	=9-	=9-	=9-	=9-	=9-	=9-	=9-
2F\	.	1d	.	.	.	.	.
!	!	!	!	!LO:TX:t=P:problem=kreska pseudotaktowa	!	!	!
2G\	.	.	.	2B\	.	4g\	.
.	.	.	.	.	.	4f\	.
*	*	*Xlig	*	*	*	*	*
*	*	*lig	*	*	*	*	*
4A\	.	1c	.	1A	Su-	2.e\	-per
4B\	.	.	.	.	.	.	.
1c\	.	.	.	.	.	.	.
*	*	*	*	*	*	*custos:g	*
!	!	!	!	!	!	!LO:TX:t=P:problem=kreska pseudotaktowa	!
.	.	.	.	.	.	4f\	.
!	!	!	!	!	!	!LO:LB:g=original	!
=10-	=10-	=10-	=10-	=10-	=10-	=10-	=10-
*	*	*custos:d	*	*	*	*	*
.	.	1d	.	1.G	-per	1.g	de
4B\	.	.	.	.	.	.	.
!LO:TX:t=P:problem=kreska pseudotaktowa	!	!	!	!	!	!	!
4A\	.	.	.	.	.	.	.
*	*	*Xlig	*	*	*	*	*
2.B\	Su-	1d	Su-	.	.	.	.
*	*	*	*	*	*ij	*	*
!	!	!	!	!LO:TX:t=P:problem=kreska pseudotaktowa	!	!	!
.	.	.	.	2G/	Su-	2g\	Su-
4B\	-per	.	.	.	.	.	.
=11-	=11-	=11-	=11-	=11-	=11-	=11-	=11-
!	!	!LO:TX:t=P:problem=kreska pseudotaktowa	!	!	!	!	!
2c\	.	1c,<	-per	2E/	-per	2g\	-per
*	*	*	*	*	*Xij	*	*
!LO:TX:t=P:problem=kreska pseudotaktowa	!	!	!	!	!	!LO:TX:t=P:problem=kreska pseudotaktowa	!
2C/	et	.	.	2c\	et	2r	.
2E\	nu-	1G	et	2.B\	nu-	2G/	et
2.G\	.	.	.	.	.	4B/	nu-
!	!	!	!	!LO:TX:t=P:problem=kreska pseudotaktowa	!	!LO:TX:t=P:problem=kreska pseudotaktowa	!
.	.	.	.	4A/	.	4c/	.
=12-	=12-	=12-	=12-	=12-	=12-	=12-	=12-
*	*	*lig	*	*	*	*	*
.	.	1B	nu-	1.G	.	2d\	.
4F\	.	.	.	.	.	.	.
4E\	.	.	.	.	.	2.e\	.
!LO:TX:t=P:problem=kreska pseudotaktowa	!	!	!	!	!	!	!
4D/	.	.	.	.	.	.	.
4C/	.	1c	.	.	.	.	.
4BB/	.	.	.	.	.	4d\	.
4AA/	.	.	.	2A/	-bes	4c\	.
8BB/L	.	.	.	.	.	8d\L	.
!LO:TX:t=P:problem=kreska pseudotaktowa	!	!	!	!	!	!LO:TX:t=P:problem=kreska pseudotaktowa	!
8C/J	.	.	.	.	.	8e\J	.
*	*	*Xlig	*	*	*	*	*
=13-	=13-	=13-	=13-	=13-	=13-	=13-	=13-
!	!	!LO:TX:t=P:problem=kreska pseudotaktowa	!	!	!	!	!
4D\	.	1A	-bes	4F/	.	4f\	.
4E\	.	.	.	4E/	.	4g\	.
2.F\	.	.	.	4D/	plu-	4a\	.
!	!	!	!	!LO:TX:t=P:problem=kreska pseudotaktowa	!	!	!
.	.	.	.	4E/	.	4g\	.
*	*	*lig	*	*	*	*	*
.	.	1A	plu-	4F/	.	2.f\	.
4E\	.	.	.	4G/	.	.	.
4D/	.	.	.	1A\	-ant	.	.
!LO:TX:t=P:problem=kreska pseudotaktowa	!	!	!	!	!	!LO:TX:t=P:problem=kreska pseudotaktowa	!
4C/	.	.	.	.	.	4e\	.
=14-	=14-	=14-	=14-	=14-	=14-	=14-	=14-
4BB/	.	1B	.	.	.	4d\	.
4AA/	.	.	.	.	.	4c/	.
*custos:AA	*	*	*	*	*	*	*
!	!	!	!	!LO:TX:a:t=P:problem=# above	!	!	!
2BB/	.	.	.	2G#X/	iu-	4d\	.
.	.	.	.	.	.	4B/	-bes
*	*	*Xlig	*	*	*	*	*
!LO:LB:g=original	!	!	!	!	!	!	!
*	*	*lig	*	*	*	*	*
!	!	!	!	!LO:TX:t=P:problem=kreska pseudotaktowa	!	!	!
2AA/	-bes	1c	.	1A,<	-ſtu(m)	4e\	plu-
.	.	.	.	.	.	4d\	.
!LO:TX:t=P:problem=kreska pseudotaktowa	!	!	!	!	!	!	!
2.A\	plu-	.	.	.	.	4c/	.
!	!	!	!	!	!	!LO:TX:t=P:problem=kreska pseudotaktowa	!
.	.	.	.	.	.	4B/	.
=15-	=15-	=15-	=15-	=15-	=15-	=15-	=15-
.	.	1A	.	2F/	plu-	2c/	.
4G\	.	.	.	.	.	.	.
4F\	.	.	.	2A/	.	1f	.
4E\	.	.	.	.	.	.	.
*	*	*Xlig	*	*	*	*	*
!	!	!LO:TX:t=P:problem=kreska pseudotaktowa	!	!	!	!	!
4D\	.	1A	-ant	2d\	-ant	.	.
4E\	.	.	.	.	.	.	.
1F\	.	.	.	2c\	iu-	2f\	-ant
=16-	=16-	=16-	=16-	=16-	=16-	=16-	=16-
*	*	*lig	*	*	*	*	*
!	!	!	!	!LO:TX:t=P:problem=kreska pseudotaktowa	!	!	!
.	.	1G	iu-	1c	-ſtu(m),	1g	iu-
!LO:TX:t=P:problem=kreska pseudotaktowa	!	!	!	!	!	!	!
2E\	-ant	.	.	.	.	.	.
!	!	!	!	!	!	!LO:TX:t=P:problem=kreska pseudotaktowa	!
4F\	iu-	1F	.	1c	et	1a	-ſtum
4G\	.	.	.	.	.	.	.
4A\	.	.	.	.	.	.	.
4G\	.	.	.	.	.	.	.
*	*	*Xlig	*	*	*	*	*
=17-	=17-	=17-	=17-	=17-	=17-	=17-	=17-
*	*	*lig	*	*	*	*	*
4F\	.	1A	.	2c\	nu-	2rf	.
4E\	.	.	.	.	.	.	.
4D/	.	.	.	1d	-bes	1f	Plu-
!LO:TX:t=P:problem=kreska pseudotaktowa	!	!	!	!	!	!	!
4C/	.	.	.	.	.	.	.
2BB-X/	.	1G	.	.	.	.	.
2C/	.	.	.	4c\	plu-	2e\	.
!	!	!	!	!LO:TX:t=P:problem=kreska pseudotaktowa	!	!	!
.	.	.	.	4B-X\	.	.	.
*	*	*Xlig	*	*	*	*	*
=18-	=18-	=18-	=18-	=18-	=18-	=18-	=18-
*	*	*lig	*	*	*	*	*
2D/	.	1F	.	4A/	.	2d\	.
.	.	.	.	4Gny/	.	.	.
*	*	*	*	*	*	*custos:B	*
!LO:TX:t=P:problem=kreska pseudotaktowa	!	!	!	!	!	!LO:TX:t=P:problem=kreska pseudotaktowa	!
2AA/	.	.	.	1F	-a(n)t	2c/	.
!	!	!	!	!	!	!LO:LB:g=original	!
*	*	*	*	*	*	*k[b-]	*
2BB-X/	.	1G	.	.	.	4B-/	.
.	.	.	.	.	.	4d/	-ant
*	*	*	*	*custos:A	*	*	*
!	!	!	!	!	!	!LO:TX:t=P:problem=kreska pseudotaktowa	!
2C/	.	.	.	2E/	iu-	2c/	iu-
*	*	*Xlig	*	*	*	*	*
!	!	!	!	!LO:LB:g=original	!	!	!
=19-	=19-	=19-	=19-	=19-	=19-	=19-	=19-
!LO:TX:t=P:problem=kreska pseudotaktowa	!	!LO:TX:t=P:problem=kreska pseudotaktowa	!	!	!	!	!
!	!	!LO:TX:a:t=z	!	!	!	!	!
1FF	-ſtu(m)	0F,<	-ſtu(m)	2A,</	-ſtu(m)	2c,</	-ſtu(m)
!	!	!	!	!	!	!LO:TX:t=P:problem=kreska pseudotaktowa	!
.	.	.	.	1A	a-	2c/	a-
!LO:TX:t=P:problem=kreska pseudotaktowa	!	!	!	!	!	!	!
0r	.	.	.	.	.	4d\	-pe-
.	.	.	.	.	.	4e\	.
!	!	!	!	!LO:TX:t=P:problem=kreska pseudotaktowa	!	!	!
.	.	.	.	[2.B-X\	-pe-	2.f\	-ri-
=20-	=20-	=20-	=20-	=20-	=20-	=20-	=20-
.	.	1F	a-	.	.	.	.
.	.	.	.	4B-\]	-ri-	4f\	-a-
.	.	.	.	1c	-a-	2.e\	.
2C/	a-	1G	-pe-	.	.	.	.
.	.	.	.	.	.	4c/	.
2.D/	-pe-	.	.	1A\	-tur	4f\	.
!	!	!	!	!	!	!LO:TX:t=P:problem=kreska pseudotaktowa	!
.	.	.	.	.	.	4e\	.
=21-	=21-	=21-	=21-	=21-	=21-	=21-	=21-
.	.	2.A/	.	.	.	2d\	.
4D/	-ri-	.	.	.	.	.	.
1F	-a-	.	.	4F/	ter-	2.c\	.
!	!	!	!	!LO:TX:t=P:problem=kreska pseudotaktowa	!	!	!
.	.	4A/	-ri-	4G/	.	.	.
.	.	1c	-a-	4A\	.	.	.
.	.	.	.	4B-X\	.	4d\	.
*custos:C	*	*	*	*	*	*	*
2C/	-tur	.	.	4c\	.	4e\	.
!	!	!	!	!	!	!LO:TX:t=P:problem=kreska pseudotaktowa	!
.	.	.	.	4d\	.	4f\	.
!LO:LB:g=original	!	!	!	!	!	!	!
=22-	=22-	=22-	=22-	=22-	=22-	=22-	=22-
!	!	!LO:TX:t=P:problem=kreska pseudotaktowa	!	!	!	!	!
4C/	ter-	1G	-tur	4e-X\	.	2.g\	.
4BB-X/	.	.	.	4d\	.	.	.
4GG/	.	.	.	4B-X\	.	.	.
!LO:TX:t=P:problem=kreska pseudotaktowa	!	!	!	!LO:TX:t=P:problem=kreska pseudotaktowa	!	!	!
4AA/	.	.	.	4c\	.	8f\L	.
.	.	.	.	.	.	8e-X\J	.
*	*	*lig	*	*	*	*	*
4BB-X/	.	1F	ter-	1.d	.	4d\	.
4C/	.	.	.	.	.	4e-\	.
4D/	.	.	.	.	.	1f\	.
4C/	.	.	.	.	.	.	.
=23-	=23-	=23-	=23-	=23-	=23-	=23-	=23-
2BB-X/	.	1G	.	.	.	.	.
4C/	.	.	.	1c	.	1eny	-tur
!LO:TX:t=P:problem=kreska pseudotaktowa	!	!	!	!	!	!	!
4BB-/	.	.	.	.	.	.	.
*	*	*Xlig	*	*	*	*	*
*	*	*lig	*	*	*	*	*
4AA/	.	1F	.	.	.	.	.
8GG/L	.	.	.	.	.	.	.
8AA/J	.	.	.	.	.	.	.
!LO:TX:t=P:problem=kreska pseudotaktowa	!	!	!	!LO:TX:t=P:problem=kreska pseudotaktowa	!	!LO:TX:t=P:problem=kreska pseudotaktowa	!
(>2.BB-X/	.	.	.	2B-X\	.	2.d\	ter-
=24-	=24-	=24-	=24-	=24-	=24-	=24-	=24-
*	*	*custos:D	*	*	*	*	*
.	.	1D	.	2F/	.	.	.
4AA/)	.	.	.	.	.	4c/	.
4GG/	.	.	.	4G/	.	4B-X/	.
4FF/	.	.	.	4A/	.	2A/	.
*	*	*Xlig	*	*	*	*	*
!	!	!LO:LB:g=original	!	!	!	!	!
!LO:TX:t=P:problem=kreska pseudotaktowa	!	!LO:TX:t=P:problem=kreska pseudotaktowa	!	!	!	!	!
1GG	.	1D,<	-ra	2.B-X\	.	.	.
.	.	.	.	.	.	8G/L	.
.	.	.	.	.	.	8F/J	.
!	!	!	!	!	!	!LO:TX:t=P:problem=kreska pseudotaktowa	!
.	.	.	.	.	.	2G/	.
!	!	!	!	!LO:TX:t=P:problem=kreska pseudotaktowa	!	!	!
.	.	.	.	4c\	.	.	.
=25-	=25-	=25-	=25-	=25-	=25-	=25-	=25-
2D,</	-ra	1F	et	2.d\	.	2A/	-ra
1BB-X	ter-	.	.	.	.	4B-X/	et
*	*	*	*	*	*	*custos:d	*
!	!	!	!	!	!	!LO:TX:t=P:problem=kreska pseudotaktowa	!
.	.	.	.	4c\	.	4c/	.
!	!	!	!	!	!	!LO:LB:g=original	!
*	*	*lig	*	*	*	*	*
.	.	1F	ger-	2B-X\	.	4d\	.
.	.	.	.	.	.	4e\	.
!LO:TX:t=P:problem=kreska pseudotaktowa	!	!	!	!	!	!	!
2AA/	.	.	.	4c\	.	1f\	.
.	.	.	.	8B-\L	.	.	.
.	.	.	.	8A\J	.	.	.
=26-	=26-	=26-	=26-	=26-	=26-	=26-	=26-
*	*	*col	*	*	*	*	*
2GG/	.	2.G/	.	2B-X\	.	.	.
!	!	!	!	!LO:TX:t=P:problem=kreska pseudotaktowa	!	!LO:TX:t=P:problem=kreska pseudotaktowa	!
2C/	.	.	.	2c\	.	2e\	ger-
*	*	*Xlig	*	*	*	*	*
.	.	4G/	-mi-	.	.	.	.
*	*	*Xcol	*	*	*	*	*
!LO:TX:t=P:problem=kreska pseudotaktowa	!	!	!	!	!	!	!
*	*	*lig	*	*	*	*	*
1FF	-ra	1F	-net	2c,<\	-ra	4f\	.
.	.	.	.	.	.	8e\L	.
.	.	.	.	.	.	8d\J	.
.	.	.	.	2A/	et	4c\	.
!	!	!	!	!	!	!LO:TX:t=P:problem=kreska pseudotaktowa	!
.	.	.	.	.	.	4d\	-mi-
=27-	=27-	=27-	=27-	=27-	=27-	=27-	=27-
1C	et	1G	.	2.c\	ger-	2e\	-net
.	.	.	.	.	.	2e\	Sal-
*	*	*	*	*custos:A	*	*	*
.	.	.	.	4Bny\	-mi-	.	.
*	*	*Xlig	*	*	*	*	*
!	!	!	!	!LO:LB:g=original	!	!	!
*	*	*lig	*	*k[b-]	*	*	*
4.D/	ger-	1F	.	2A\	-net	2f\	-ua-
8C/	.	.	.	.	.	.	.
!	!	!	!	!	!	!LO:TX:t=P:problem=kreska pseudotaktowa	!
2.BB-X/	.	.	.	4B-\	.	2.d\	-to-
!	!	!	!	!LO:TX:t=P:problem=kreska pseudotaktowa	!	!	!
.	.	.	.	4c\	.	.	.
=28-	=28-	=28-	=28-	=28-	=28-	=28-	=28-
!	!	!LO:TX:t=P:problem=kreska pseudotaktowa	!	!	!	!	!
.	.	1E	.	2.d\	Sal-	.	.
4AA/	.	.	.	.	.	4c/	.
2.GG/	.	.	.	.	.	2.B-X/	.
.	.	.	.	4c\	-ua-	.	.
*	*	*Xlig	*	*	*	*	*
*	*	*lig	*	*	*	*	*
.	.	1D	Sal-	1B-	-to-	.	.
*custos:BB	*	*	*	*	*	*	*
4AA/	.	.	.	.	.	4c/	.
!LO:LB:g=original	!	!	!	!	!	!	!
4BB-X/	.	.	.	.	.	1d\	.
!LO:TX:t=P:problem=kreska pseudotaktowa	!	!	!	!	!	!	!
4C/	.	.	.	.	.	.	.
=29-	=29-	=29-	=29-	=29-	=29-	=29-	=29-
!	!	!	!	!LO:TX:t=P:problem=kreska pseudotaktowa	!	!	!
4D/	.	1F	.	1A	-r(em)	.	.
4E\	.	.	.	.	.	.	.
!	!	!	!	!	!	!LO:TX:t=P:problem=kreska pseudotaktowa	!
1F	.	.	.	.	.	2c/	.
*	*	*Xlig	*	*	*	*	*
*	*	*lig	*	*	*	*	*
!	!	!	!	!	!	!LO:TX:t=P:problem=kreska pseudotaktowa	!
.	.	1C	-ua-	1G	et	1c	-rem
!LO:TX:t=P:problem=kreska pseudotaktowa	!	!	!	!	!	!	!
2E\	-mi-	.	.	.	.	.	.
=30-	=30-	=30-	=30-	=30-	=30-	=30-	=30-
2D/	-net	1F	.	2.A/	ger-	2d\	Sal-
4D/	Sal-	.	.	.	.	2.f\	-ua-
!	!	!	!	!LO:TX:t=P:problem=kreska pseudotaktowa	!	!	!
4C/	.	.	.	4A/	-mi-	.	.
*	*	*Xlig	*	*	*	*	*
2.BB-X/	.	0D	.	2B-,<\	-net	.	.
.	.	.	.	.	.	4e\	-to-
!	!	!	!	!	!	!LO:TX:t=P:problem=kreska pseudotaktowa	!
.	.	.	.	2.B-\	Sal-	[y2d\	.
!LO:TX:t=P:problem=kreska pseudotaktowa	!	!	!	!	!	!	!
4AA/	.	.	.	.	.	.	.
=31-	=31-	=31-	=31-	=31-	=31-	=31-	=31-
!	!	!	!	!	!	!LO:N:xstem:cue	!
2GG/	.	.	.	.	.	4d\]	.
.	.	.	.	4c\	.	4c/	.
!	!	!	!	!LO:TX:t=P:problem=kreska pseudotaktowa	!	!	!
2GG/	-ua-	.	.	2d\	.	4B-/	.
!	!	!	!	!	!	!LO:TX:t=P:problem=kreska pseudotaktowa	!
.	.	.	.	.	.	4A/	.
*	*	*lig	*	*	*	*	*
2.C/	-to-	1E	.	2c\	.	2G/	.
.	.	.	.	2G/	-ua-	1c\	-rem
!LO:TX:t=P:problem=kreska pseudotaktowa	!	!	!	!	!	!	!
4BBny/	.	.	.	.	.	.	.
=32-	=32-	=32-	=32-	=32-	=32-	=32-	=32-
4AA/	.	1F	.	1A	-to-	.	.
4GG/	.	.	.	.	.	.	.
!LO:TX:t=P:problem=kreska pseudotaktowa	!	!	!	!	!	!	!
2FF/	.	.	.	.	.	1d	Sal-
2GG/	.	1E	-to-	2B-X\	-rem	.	.
!	!	!	!	!	!	!LO:TX:t=P:problem=kreska pseudotaktowa	!
2AA/	.	.	.	2.A/	Sal-	2c#X/	-ua-
*	*	*Xlig	*	*	*	*	*
=33-	=33-	=33-	=33-	=33-	=33-	=33-	=33-
2D/	-rem	[0Dl;	-rem	.	.	2.f\	-to-
.	.	.	.	4G/	.	.	.
4A\	Sal-	.	.	4F/	.	.	.
*	*	*	*	*	*	*custos:a	*
!LO:TX:t=P:problem=kreska pseudotaktowa	!	!	!	!LO:TX:t=P:problem=kreska pseudotaktowa	!	!	!
4G\	.	.	.	4E/	.	4g\	.
!	!	!	!	!	!	!LO:LB:g=original	!
4F\	.	.	.	2D/	.	4a\	.
4E\	.	.	.	.	.	4g\	.
4D/	.	.	.	2.d\	.	4f\	.
!LO:TX:t=P:problem=kreska pseudotaktowa	!	!	!	!	!	!LO:TX:t=P:problem=kreska pseudotaktowa	!
4C/	.	.	.	.	.	4e\	.
=34-	=34-	=34-	=34-	=34-	=34-	=34-	=34-
2.BB-X/	.	0D_	.	.	.	2.d\	.
.	.	.	.	4c\	.	.	.
.	.	.	.	2.B-\	.	.	.
4AA/	.	.	.	.	.	8e\L	.
.	.	.	.	.	.	8f\J	.
2GG/	.	.	.	.	.	2g\	.
.	.	.	.	4G/	.	.	.
!	!	!	!	!	!	!LO:TX:t=P:problem=kreska pseudotaktowa	!
2FF#X/	-ua-	.	.	4d\	.	2.a\	.
.	.	.	.	4c\	-ua-	.	.
=35-	=35-	=35-	=35-	=35-	=35-	=35-	=35-
1GG	-to-	0.D]	.	1B-X	-to-	.	.
.	.	.	.	.	.	8g\L	.
.	.	.	.	.	.	8f\J	.
.	.	.	.	.	.	2g\	.
!	!	!	!	!LO:TX:a:t=P:problem=brak kreski taktowej	!	!	!
0D;	-rem.	.	.	0A;	-rem.	0f#X;<	-rem.
!LO:LB:g=original	!	!	!	!LO:LB:g=original	!	!	!
=36||-	=36||-	=36||-	=36||-	=36||-	=36||-	=36||-	=36||-
*met(c|)	*	*met(c|)	*	*met(c|)	*	*met(c|)	*
*k[b-]	*	*k[]	*	*k[b-]	*	*k[b-]	*
1D	Be-	1F	Be-	1A	Be-	1d	Be-
*	*	*lig	*	*	*	*	*
2C/	-ne-	1G	-ne-	4.c\	-ne-	2e\	-ne-
.	.	.	.	8c\	-di-	.	.
!LO:TX:t=P:problem=kreska pseudotaktowa	!	!	!	!	!	!	!
2BB-/	-di-	.	.	1d\	-xi-	4d\	-di-
!	!	!	!	!	!	!LO:TX:t=P:problem=kreska pseudotaktowa	!
.	.	.	.	.	.	4e\	.
=37-	=37-	=37-	=37-	=37-	=37-	=37-	=37-
1AA	-xi-	1A	.	.	.	2f\	.
!	!	!	!	!LO:TX:a:t=P:problem=# above	!	!	!
!	!	!	!	!LO:TX:t=P:problem=kreska pseudotaktowa	!	!	!
.	.	.	.	2c#X\	.	2e\	-xi-
*	*	*Xlig	*	*	*	*	*
2D,</	-ſti	1A	-di-	1d	-ſti	2f,<\	-ſti
4D/	Do-	.	.	.	.	1f\	Do-
!LO:TX:t=P:problem=kreska pseudotaktowa	!	!	!	!	!	!	!
4E\	.	.	.	.	.	.	.
=38-	=38-	=38-	=38-	=38-	=38-	=38-	=38-
4F\	.	1A	-xi-	2d\	Do-	.	.
4G\	.	.	.	.	.	.	.
!	!	!	!	!LO:TX:a:t=P:problem=# above	!	!LO:TX:t=P:problem=kreska pseudotaktowa	!
4A\	.	.	.	2c#X\	.	2e\	-mi-
4G\	.	.	.	.	.	.	.
*	*	*custos:A	*	*	*	*	*
!	!	!LO:TX:t=P:problem=kreska pseudotaktowa	!	!	!	!	!
2F\	.	1A	-ſti	2f\	.	2d\	-ne
!LO:TX:t=P:problem=kreska pseudotaktowa	!	!	!	!LO:TX:t=P:problem=kreska pseudotaktowa	!	!	!
2C#X/	.	.	.	2e\	.	4a\	.
!	!	!	!	!	!	!LO:TX:t=P:problem=kreska pseudotaktowa	!
.	.	.	.	.	.	4g\	.
=39-	=39-	=39-	=39-	=39-	=39-	=39-	=39-
1.D	.	1.A	Do-	4d\	.	4f\	Do-
.	.	.	.	4e\	.	4e\	.
.	.	.	.	4f\	.	4d\	.
.	.	.	.	4e\	.	4e\	.
.	.	.	.	2.d\	-mi-	2.f\	.
2D/	-mi-	2A/	-mi-	.	.	.	.
*	*	*	*	*	*	*custos:e	*
!	!	!	!	!	!	!LO:TX:t=P:problem=kreska pseudotaktowa	!
.	.	.	.	4d\	-ne	4f\	-mi-
=40-	=40-	=40-	=40-	=40-	=40-	=40-	=40-
!	!	!	!	!LO:TX:a:t=P:problem=# above	!	!	!
!	!	!LO:TX:t=P:problem=kreska pseudotaktowa	!	!LO:TX:t=P:problem=kreska pseudotaktowa	!	!	!
2AA,</	-ne	1A	-ne	1c#X	.	1e	-ne
4A\	ter-	.	.	.	.	.	.
!LO:TX:t=P:problem=kreska pseudotaktowa	!	!	!	!	!	!	!
4G\	.	.	.	.	.	.	.
*	*	*lig	*	*	*	*	*
4F\	.	1A	ter-	1d	ter-	1.f	ter-
4E\	.	.	.	.	.	.	.
2D/	.	.	.	.	.	.	.
=41-	=41-	=41-	=41-	=41-	=41-	=41-	=41-
!LO:TX:t=P:problem=kreska pseudotaktowa	!	!	!	!LO:TX:t=P:problem=kreska pseudotaktowa	!	!	!
1Cny	-ram	1c	.	1G	-ram	.	.
.	.	.	.	.	.	2e\	.
*	*	*Xlig	*	*	*	*	*
!	!	!LO:TX:t=P:problem=kreska pseudotaktowa	!	!	!	!	!
2.D/	tu-	1A	-ra(m)	2.F/	tu-	1d	.
4E\	.	.	.	4E/	.	.	.
=42-	=42-	=42-	=42-	=42-	=42-	=42-	=42-
*	*	*lig	*	*	*	*	*
!	!	!	!	!	!	!LO:TX:t=P:problem=kreska pseudotaktowa	!
2F\	.	1A	tu-	2D/	.	1d	-ram
4E\	.	.	.	1d	.	.	.
!LO:TX:t=P:problem=kreska pseudotaktowa	!	!	!	!	!	!	!
4D/	.	.	.	.	.	.	.
0E-X	.	1G	.	.	.	0r	.
.	.	.	.	4cny\	.	.	.
!	!	!	!	!LO:TX:t=P:problem=kreska pseudotaktowa	!	!	!
.	.	.	.	4B-\	.	.	.
*	*	*Xlig	*	*	*	*	*
=43-	=43-	=43-	=43-	=43-	=43-	=43-	=43-
*	*	*lig	*	*	*	*	*
.	.	1G	-am	1c	.	.	.
*custos:BB	*	*	*	*	*	*	*
!LO:TX:t=P:problem=kreska pseudotaktowa	!	!LO:TX:t=P:problem=kreska pseudotaktowa	!	!	!	!	!
1D	-am	1A,<	.	1d,<	-am	1.f	a-
*	*	*Xlig	*	*	*	*	*
!LO:PB:g=original	!	!	!	!	!	!	!
=44-	=44-	=44-	=44-	=44-	=44-	=44-	=44-
*	*	*lig	*	*	*	*	*
2BB-/	a-	1G	a-	2d\	a-	.	.
!LO:TX:t=P:problem=kreska pseudotaktowa	!	!	!	!	!	!	!
2C/	-uer-	.	.	2c\	-uer-	2e\	-uer-
4D\	.	1F	.	2B-\	-ti-	2d\	-tiſ-
4Eny\	.	.	.	.	.	.	.
*	*	*	*	*custos:G	*	*	*
!	!	!	!	!	!	!LO:TX:t=P:problem=kreska pseudotaktowa	!
1F\	.	.	.	2A/	.	2c/	-ti
*	*	*Xlig	*	*	*	*	*
!	!	!	!	!LO:LB:g=original	!	!	!
=45-	=45-	=45-	=45-	=45-	=45-	=45-	=45-
*	*	*lig	*	*	*	*	*
.	.	1G	-uer-	1G	.	1c	ca-
!LO:TX:t=P:problem=kreska pseudotaktowa	!	!	!	!	!	!	!
2E\	-ti-	.	.	.	.	.	.
2F\	-ſti	1A	.	2F/	-ſti	2.c/	-pti-
!	!	!	!	!LO:TX:t=P:problem=kreska pseudotaktowa	!	!	!
2A\	ca-	.	.	2f\	ca-	.	.
!	!	!	!	!	!	!LO:TX:t=P:problem=kreska pseudotaktowa	!
.	.	.	.	.	.	4c/	-ui-
*	*	*Xlig	*	*	*	*	*
=46-	=46-	=46-	=46-	=46-	=46-	=46-	=46-
2F\	-pti-	1A	-ti-	2f\	-pti-	2d\	-ta-
!LO:TX:t=P:problem=kreska pseudotaktowa	!	!	!	!	!	!	!
2C#X/	-ui-	.	.	2e\	-ui-	2e\	.
!	!	!LO:TX:t=P:problem=kreska pseudotaktowa	!	!	!	!	!
2D/	-ta-	1A,<	-ſti	2d\	-ta-	2f\	.
!	!	!	!	!LO:TX:a:t=P:problem=# above	!	!LO:TX:t=P:problem=kreska pseudotaktowa	!
2AA/	-tem.	.	.	2c#X\	.	2e\	.
=47-	=47-	=47-	=47-	=47-	=47-	=47-	=47-
2F\	Cap-	1A	Cap-	2f\	.	4d\	.
.	.	.	.	.	.	4e\	.
!	!	!	!	!LO:TX:t=P:problem=kreska pseudotaktowa	!	!	!
1D	.	.	.	2d\	.	4f\	.
.	.	.	.	.	.	4g\	.
.	.	1A	-ti-	1e	-tem	2.a\	.
!LO:TX:b:t=P:problem=# below	!	!	!	!	!	!	!
!LO:TX:t=P:problem=kreska pseudotaktowa	!	!	!	!	!	!	!
2C#X/	-ti-	.	.	.	.	.	.
!	!	!	!	!	!	!LO:TX:t=P:problem=kreska pseudotaktowa	!
.	.	.	.	.	.	4g\	.
=48-	=48-	=48-	=48-	=48-	=48-	=48-	=48-
*	*	*lig	*	*	*	*	*
2.D/	-ui-	1A	-ui-	4d\	ca-	2.f\	.
.	.	.	.	4d\	-pti-	.	.
.	.	.	.	1A	-ui-	.	.
4Cny/	-ta-	.	.	.	.	4e\	.
!LO:N:acc=#	!	!	!	!	!	!	!
4BBn/	.	1B	.	.	.	4d\	.
4AA/	.	.	.	.	.	4c/	.
!LO:TX:t=P:problem=kreska pseudotaktowa	!	!	!	!LO:TX:t=P:problem=kreska pseudotaktowa	!	!LO:TX:t=P:problem=kreska pseudotaktowa	!
2BB/	.	.	.	2G#X/	.	2d\	-te(m)
*	*	*Xlig	*	*	*	*	*
=49-	=49-	=49-	=49-	=49-	=49-	=49-	=49-
*	*	*lig	*	*	*	*	*
2AA/	-te(m)	1c	.	2.A\	-ta-	2c,</	.
!	!	!	!	!	!	!LO:TX:t=P:problem=kreska pseudotaktowa	!
2.FF/	Ja-	.	.	.	.	2f\	cap-
.	.	.	.	4B-X\	.	.	.
!	!	!	!	!LO:TX:t=P:problem=kreska pseudotaktowa	!	!	!
.	.	1A	.	1cny	.	1.f	-ti-
4GG/	.	.	.	.	.	.	.
4AA#X/	.	.	.	.	.	.	.
!LO:TX:t=P:problem=kreska pseudotaktowa	!	!	!	!	!	!	!
4BB-X/	.	.	.	.	.	.	.
*	*	*Xlig	*	*	*	*	*
=50-	=50-	=50-	=50-	=50-	=50-	=50-	=50-
2.C/	.	1G	-ta-	1.c	-tem	.	.
.	.	.	.	.	.	1e	-ui-
4BB-/	.	.	.	.	.	.	.
!	!	!LO:TX:t=P:problem=kreska pseudotaktowa	!	!	!	!	!
2AAny/	.	1F	-te(m)	.	.	.	.
!	!	!	!	!	!	!LO:TX:t=P:problem=kreska pseudotaktowa	!
1BB-X/	.	.	.	1B-\	.	2d\	-ta-
=51-	=51-	=51-	=51-	=51-	=51-	=51-	=51-
*	*	*lig	*	*	*	*	*
.	.	1F	Ja-	.	.	2d\	-te(m)
*custos:GG	*	*	*	*	*	*	*
!	!	!	!	!LO:TX:t=P:problem=kreska pseudotaktowa	!	!	!
2FF/	.	.	.	2A/	Ja-	1d	Ja-
!LO:LB:g=original	!	!	!	!	!	!	!
2GG/	.	1E	.	2B-/	.	.	.
!	!	!	!	!	!	!LO:TX:b:t=P:problem=# below	!
2AA/	.	.	.	4A/	.	2c#X/	.
.	.	.	.	4Gny/	.	.	.
*	*	*Xlig	*	*	*	*	*
=52-	=52-	=52-	=52-	=52-	=52-	=52-	=52-
2.BB-X/	.	2D/	.	1F	.	[0dl;;	-cob.
.	.	4d\	.	.	.	.	.
4AA/	.	4c\	.	.	.	.	.
*	*	*2\right	*	*	*	*	*
2GG/	.	2B-X\	.	2G/	.	.	.
*	*	*custos:G	*	*	*	*	*
!	!	!	!	!LO:TX:t=P:problem=kreska pseudotaktowa	!	!	!
2FF#X/	.	2A/	.	2A/	.	.	.
!	!	!LO:LB:g=original	!	!	!	!	!
=53-	=53-	=53-	=53-	=53-	=53-	=53-	=53-
0GG	.	2.G/	.	2.B-X\	.	0d_	.
.	.	4A/	.	4A/	.	.	.
.	.	1B-X	.	1G	.	.	.
=54-	=54-	=54-	=54-	=54-	=54-	=54-	=54-
0Dl	-cob	0A;	-cob.	0F#X;	-cob.	0d]	.
!	!	!	!	!LO:PB:g=original	!	!LO:PB:g=original	!
=55||-	=55||-	=55||-	=55||-	=55||-	=55||-	=55||-	=55||-
*met(c|)	*	*met(c|)	*	*met(c|)	*	*met(c|)	*
*lig	*	*lig	*	*lig	*	*lig	*
1D	Glo-	1F	Glo-	1A	Glo-	1d	Glo-
1C	.	1G	.	1.c	.	1e	.
*Xlig	*	*Xlig	*	*Xlig	*	*Xlig	*
=56-	=56-	=56-	=56-	=56-	=56-	=56-	=56-
*col	*	*	*	*	*	*	*
!LO:N:vis=0	!	!	!	!	!	!	!
2.FFny/	.	2.A/	.	.	.	2.f\	.
!	!	!	!	!LO:TX:t=P:problem=kreska pseudotaktowa	!	!	!
.	.	.	.	2c\	-ri-	.	.
!LO:TX:t=P:problem=kreska pseudotaktowa	!	!	!	!	!	!LO:TX:t=P:problem=kreska pseudotaktowa	!
4FF/	-ri-	4A/	-ri-	.	.	4f\	-ri-
*Xcol	*	*	*	*	*	*	*
!	!	!LO:TX:t=P:problem=kreska pseudotaktowa	!	!	!	!	!
2FF/	-a	1A	-a	2c\	-a	2f\	-a
2.F\	Pa-	.	.	4c\	Pa-	2.a\	Pa-
.	.	.	.	4B-\	.	.	.
=57-	=57-	=57-	=57-	=57-	=57-	=57-	=57-
.	.	1A	Pa-	4A\	.	.	.
4E\	.	.	.	8B-\L	.	4g\	.
.	.	.	.	8c\J	.	.	.
!	!	!	!	!LO:TX:t=P:problem=kreska pseudotaktowa	!	!	!
1D	.	.	.	2d\	.	1f	.
!	!	!LO:TX:t=P:problem=kreska pseudotaktowa	!	!	!	!	!
.	.	1A	-tri	1A	-tri	.	.
4C#X/	.	.	.	.	.	4e\	.
!LO:TX:t=P:problem=kreska pseudotaktowa	!	!	!	!	!	!LO:TX:t=P:problem=kreska pseudotaktowa	!
4BB-/	.	.	.	.	.	4d\	.
=58-	=58-	=58-	=58-	=58-	=58-	=58-	=58-
*	*	*	*	*lig	*	*2\left	*
2Cny/	.	1A	et	1f	et	2e\	.
*	*	*	*	*	*	*2\right	*
2D/	.	.	.	.	.	2d\	.
!	!	!	!	!	!	!LO:TX:b:t=P:problem=# below	!
2AA,</	-tri	1.A	Fi-	1e	.	2c#X/	-tri
!	!	!	!	!	!	!LO:TX:b:t=P:problem=# below	!
!	!	!	!	!	!	!LO:TX:t=P:problem=kreska pseudotaktowa	!
2AA/	et	.	.	.	.	2c#X/	et
*	*	*	*	*Xlig	*	*	*
=59-	=59-	=59-	=59-	=59-	=59-	=59-	=59-
2.D/	Fi-	.	.	2.d\	Fi-	2.f\	Fi-
.	.	2A/	-li-	.	.	.	.
!	!	!	!	!LO:TX:t=P:problem=kreska pseudotaktowa	!	!	!
4D/	-li-	.	.	4d\	-li-	4f\	-li-
*custos:A	*	*	*	*	*	*	*
!	!	!LO:TX:t=P:problem=kreska pseudotaktowa	!	!LO:TX:t=P:problem=kreska pseudotaktowa	!	!	!
1AA	-o	1A,<	-o	0c	-o	2e\	-o
!	!	!	!	!	!	!LO:TX:t=P:problem=kreska pseudotaktowa	!
.	.	.	.	.	.	2e\	et
!LO:LB:g=original	!	!	!	!	!	!	!
=60-	=60-	=60-	=60-	=60-	=60-	=60-	=60-
2A\	et	1A	et	.	.	2A/	Spi-
2AA/	Spi-	.	.	.	.	2.cny/	-ri-
4.C/	-ri-	1A	Spi-	2e\	et	.	.
.	.	.	.	.	.	4c/	-tu-
8C/	-tu-	.	.	.	.	.	.
!LO:TX:t=P:problem=kreska pseudotaktowa	!	!	!	!	!	!LO:TX:t=P:problem=kreska pseudotaktowa	!
2D/	-i	.	.	2A/	Spi-	2f\	-i
=61-	=61-	=61-	=61-	=61-	=61-	=61-	=61-
*	*	*lig	*	*	*	*	*
4D/	San-	1Bny	-ri-	2.f\	-ri-	1d	San-
4E\	.	.	.	.	.	.	.
4F\	.	.	.	.	.	.	.
4G\	.	.	.	4f\	-tu-	.	.
!	!	!	!	!LO:TX:t=P:problem=kreska pseudotaktowa	!	!	!
2A\	.	1c	.	1e	-i	2c/	.
*	*	*Xlig	*	*	*	*	*
!LO:TX:t=P:problem=kreska pseudotaktowa	!	!	!	!	!	!LO:TX:t=P:problem=kreska pseudotaktowa	!
2E\	.	.	.	.	.	2g\	-cto
=62-	=62-	=62-	=62-	=62-	=62-	=62-	=62-
2F\	.	1A	-tu-	2c\	San-	4a\	San-
.	.	.	.	.	.	4g\	.
4D/	.	.	.	2d\	.	2.f\	.
4E\	.	.	.	.	.	.	.
!	!	!LO:TX:t=P:problem=kreska pseudotaktowa	!	!	!	!	!
2F\	.	1A	-i	1c	.	.	.
.	.	.	.	.	.	4g\	.
2.FF/	.	.	.	.	.	4a\	.
!	!	!	!	!	!	!LO:TX:t=P:problem=kreska pseudotaktowa	!
.	.	.	.	.	.	4g\	.
=63-	=63-	=63-	=63-	=63-	=63-	=63-	=63-
*	*	*lig	*	*	*	*	*
!	!	!	!	!LO:TX:t=P:problem=kreska pseudotaktowa	!	!	!
.	.	1A	San-	1c	-cto	4f\	.
4GG/	.	.	.	.	.	4e\	.
4AA/	.	.	.	.	.	4c/	.
*	*	*	*	*	*	*custos:e	*
!	!	!	!	!	!	!LO:TX:t=P:problem=kreska pseudotaktowa	!
4BB-X/	.	.	.	.	.	4d\	.
!	!	!	!	!	!	!LO:LB:g=original	!
2C/	.	1G	.	(2c\	San-	2e\	.
!LO:TX:t=P:problem=kreska pseudotaktowa	!	!	!	!	!	!	!
2BB-X/	.	.	.	2d\	.	1f\	.
*	*	*Xlig	*	*	*	*	*
=64-	=64-	=64-	=64-	=64-	=64-	=64-	=64-
*	*	*lig	*	*	*	*	*
1C	.	1G	-cto.	1c)	.	.	.
.	.	.	.	.	.	2e\	.
*	*	*custos:G	*	*	*	*	*
!	!	!LO:TX:t=P:problem=kreska pseudotaktowa	!	!	!	!LO:TX:t=P:problem=kreska pseudotaktowa	!
2FF/	-cto	1A	.	2c,<\	-cto	1f	-cto
1F\	Si-	.	.	1c\	Si-	.	.
*	*	*Xlig	*	*	*	*	*
!	!	!LO:LB:g=original	!	!	!	!	!
=65-	=65-	=65-	=65-	=65-	=65-	=65-	=65-
*	*	*lig	*	*	*	*	*
.	.	1G	Si-	.	.	1r	.
*	*	*	*	*custos:d	*	*	*
!LO:TX:t=P:problem=kreska pseudotaktowa	!	!	!	!LO:TX:t=P:problem=kreska pseudotaktowa	!	!	!
2E\	-cut	.	.	2c\	-cut	.	.
*lig	*	*	*	*	*	*	*
1D	e-	1F	.	1d	e-	2r	.
.	.	.	.	.	.	1f\	Si-
*	*	*Xlig	*	*	*	*	*
=66-	=66-	=66-	=66-	=66-	=66-	=66-	=66-
*	*	*lig	*	*	*	*	*
1C	.	1G	-cut	2G/	-rat	.	.
!	!	!	!	!LO:TX:t=P:problem=kreska pseudotaktowa	!	!LO:TX:t=P:problem=kreska pseudotaktowa	!
.	.	.	.	2.c\	in	2e\	-cut
*Xlig	*	*	*	*	*	*	*
!	!	!LO:TX:t=P:problem=kreska pseudotaktowa	!	!	!	!	!
1FF	.	1A	.	.	.	2f\	.
.	.	.	.	4B-\	.	.	.
.	.	.	.	4A/	.	1c\	e-
.	.	.	.	4G/	.	.	.
*	*	*Xlig	*	*	*	*	*
=67-	=67-	=67-	=67-	=67-	=67-	=67-	=67-
4F\	.	1A	e-	2Fny/	.	.	.
4E\	.	.	.	.	.	.	.
4D\	.	.	.	1f	.	1d	-rat
4E\	.	.	.	.	.	.	.
!	!	!LO:TX:t=P:problem=kreska pseudotaktowa	!	!	!	!	!
4F\	.	1A	-rat	.	.	.	.
4G\	.	.	.	.	.	.	.
!	!	!	!	!	!	!LO:TX:t=P:problem=kreska pseudotaktowa	!
!LO:TX:t=P:problem=kreska pseudotaktowa	!	!	!	!LO:TX:t=P:problem=kreska pseudotaktowa	!	!LO:TX:b:t=P:problem=# below	!
2A\	.	.	.	2e\	prin-	2c#X/	in
=68-	=68-	=68-	=68-	=68-	=68-	=68-	=68-
2D/	-rat	1.A	in	1.d	-ci-	1.f	prin-
1D	in	.	.	.	.	.	.
!LO:TX:t=P:problem=kreska pseudotaktowa	!	!	!	!	!	!	!
2C#X/	prin-	2A/	prin-	2e\	.	1e\	-ci-
=69-	=69-	=69-	=69-	=69-	=69-	=69-	=69-
1.D	-ci-	1.A	-ci-	1.f	.	.	.
.	.	.	.	.	.	4d\	.
!	!	!	!	!	!	!LO:TX:t=P:problem=kreska pseudotaktowa	!
.	.	.	.	.	.	4cny/	.
.	.	.	.	.	.	2.d\	.
*custos:AA	*	*	*	*	*	*	*
!LO:TX:t=P:problem=kreska pseudotaktowa	!	!	!	!LO:TX:t=P:problem=kreska pseudotaktowa	!	!	!
2D/	-pi-	2A/	-pi-	2f\	-pi-	.	.
.	.	.	.	.	.	4d\	pi-
!LO:LB:g=original	!	!	!	!	!	!	!
=70-	=70-	=70-	=70-	=70-	=70-	=70-	=70-
!	!	!LO:TX:t=P:problem=kreska pseudotaktowa	!	!	!	!	!
1.AA	-o	1A	-o	2e\	-o	1.c-X	-o
.	.	.	.	2A/	et	.	.
.	.	1A	et	1.c	nunc	.	.
!LO:TX:t=P:problem=kreska pseudotaktowa	!	!	!	!	!	!LO:TX:t=P:problem=kreska pseudotaktowa	!
2Cny/	et	.	.	.	.	2e\	et
=71-	=71-	=71-	=71-	=71-	=71-	=71-	=71-
*	*	*lig	*	*	*	*	*
4D/	nunc	1A	nunc	.	.	1f	nunc
4E\	.	.	.	.	.	.	.
!	!	!	!	!LO:TX:t=P:problem=kreska pseudotaktowa	!	!	!
1F	.	.	.	2A/	.	.	.
!	!	!LO:TX:t=P:problem=kreska pseudotaktowa	!	!	!	!	!
.	.	1c	.	2G/	et	1g	.
!LO:TX:t=P:problem=kreska pseudotaktowa	!	!	!	!	!	!	!
2E\	et	.	.	2.c\	ſem-	.	.
*	*	*Xlig	*	*	*	*	*
=72-	=72-	=72-	=72-	=72-	=72-	=72-	=72-
2.F\	ſem-	1A	et	.	.	1f	et
.	.	.	.	4B-\	.	.	.
.	.	.	.	4A/	.	.	.
!	!	!	!	!LO:TX:t=P:problem=kreska pseudotaktowa	!	!	!
4E\	.	.	.	4G/	.	.	.
*	*	*lig	*	*	*	*	*
2.D/	.	1A	ſem-	4F/	.	2f\	Sem-
.	.	.	.	4G/	.	.	.
.	.	.	.	4A/	.	1f\	-p(er)
4C/	.	.	.	8B-\L	.	.	.
.	.	.	.	8c\J	.	.	.
=73-	=73-	=73-	=73-	=73-	=73-	=73-	=73-
*lig	*	*	*	*lig	*	*	*
1BB-	.	1G	.	1d	.	.	.
.	.	.	.	.	.	4e\	.
!	!	!	!	!	!	!LO:TX:t=P:problem=kreska pseudotaktowa	!
.	.	.	.	.	.	4d\	.
*	*	*Xlig	*	*	*	*	*
*	*	*lig	*	*	*	*	*
1C	.	1G	-per	1c	.	4e\	Sem-
.	.	.	.	.	.	2f\	.
.	.	.	.	.	.	4e\	.
*Xlig	*	*	*	*Xlig	*	*	*
=74-	=74-	=74-	=74-	=74-	=74-	=74-	=74-
!LO:TX:t=P:problem=kreska pseudotaktowa	!	!LO:TX:t=P:problem=kreska pseudotaktowa	!	!LO:TX:t=P:problem=kreska pseudotaktowa	!	!LO:TX:t=P:problem=kreska pseudotaktowa	!
1FF	-per	1A	.	1c	-per	1f	-per
*	*	*Xlig	*	*	*	*	*
*	*	*lig	*	*	*	*	*
*	*	*	*	*custos:F	*	*custos:c	*
!	!	!	!	!LO:TX:t=P:problem=kreska pseudotaktowa	!	!LO:TX:t=P:problem=kreska pseudotaktowa	!
2r	.	1G	et	1r	.	0r	.
2C/	et	.	.	.	.	.	.
=75-	=75-	=75-	=75-	=75-	=75-	=75-	=75-
!	!	!LO:TX:t=P:problem=kreska pseudotaktowa	!	!	!	!	!
2D/	in	1F	.	2F/	et	.	.
!	!	!	!	!LO:TX:t=P:problem=kreska pseudotaktowa	!	!	!
1F	ſae-	.	.	2A/	in	.	.
*	*	*Xlig	*	*	*	*	*
!	!	!	!	!	!	!LO:LB:g=original	!
*	*	*lig	*	*	*	*	*
.	.	1G	in	2.c\	Sae-	2cny/	et
!LO:TX:t=P:problem=kreska pseudotaktowa	!	!	!	!	!	!	!
2E\	.	.	.	.	.	2e\	in
.	.	.	.	4c\	-cu-	.	.
=76-	=76-	=76-	=76-	=76-	=76-	=76-	=76-
!	!	!LO:TX:t=P:problem=kreska pseudotaktowa	!	!	!	!	!
4D\	.	1A	.	2d\	-la	1.f	Sae-
4E\	.	.	.	.	.	.	.
4F\	.	.	.	1d	Sae-	.	.
4G\	.	.	.	.	.	.	.
*	*	*Xlig	*	*	*	*	*
1.A	.	1.A	Sae-	.	.	.	.
!	!	!	!	!LO:TX:a:t=P:problem=# above	!	!	!
.	.	.	.	4c#X\	.	4e\	.
!	!	!	!	!LO:TX:t=P:problem=kreska pseudotaktowa	!	!	!
!	!	!	!	!LO:N:acc=#	!	!LO:TX:t=P:problem=kreska pseudotaktowa	!
.	.	.	.	4Bn\	.	4d\	.
=77-	=77-	=77-	=77-	=77-	=77-	=77-	=77-
!	!	!	!	!LO:TX:a:t=P:problem=# above	!	!	!
.	.	.	.	2.c#X\	.	2.e\	.
!LO:TX:t=P:problem=kreska pseudotaktowa	!	!	!	!	!	!	!
2AA/	-cu-	2A/	-cu-	.	.	.	.
.	.	.	.	4c#\	-cu-	4e\	-cu-
!	!	!LO:TX:t=P:problem=kreska pseudotaktowa	!	!	!	!LO:TX:t=P:problem=kreska pseudotaktowa	!
2D/	-la	1A	-la	2d\	-lo-	1f	-la
1D\	ſae-	.	.	1d\	-rum	.	.
=78-	=78-	=78-	=78-	=78-	=78-	=78-	=78-
*	*	*lig	*	*	*	*	*
.	.	1A	Sae-	.	.	2rf	.
!	!	!	!	!LO:TX:t=P:problem=kreska pseudotaktowa	!	!	!
2C/	-cu-	.	.	2e\	.	1a	Sae-
!LO:TX:t=P:problem=kreska pseudotaktowa	!	!	!	!	!	!	!
!LO:N:acc=#	!	!	!	!	!	!	!
1BBn	-lo-	1B	.	1d	A-	.	.
!	!	!	!	!	!	!LO:TX:t=P:problem=kreska pseudotaktowa	!
!	!	!	!	!	!	!LO:TX:b:t=P:problem=# below	!
.	.	.	.	.	.	2g#X\	-cu-
*	*	*Xlig	*	*	*	*	*
=79-	=79-	=79-	=79-	=79-	=79-	=79-	=79-
2AA/	-rum	1c	.	2e\	.	1a	-lo-
4A\	A-	.	.	4A\	.	.	.
!LO:TX:t=P:problem=kreska pseudotaktowa	!	!	!	!LO:TX:t=P:problem=kreska pseudotaktowa	!	!	!
4G\	.	.	.	4B-y\	.	.	.
*	*	*custos:G	*	*	*	*	*
!	!	!LO:TX:b:t=loru(m)	!	!	!	!	!
4F\	.	1A	-cu-	2cny\	.	2a\	-rum
4E\	.	.	.	.	.	.	.
*	*	*	*	*lig	*	*	*
4D\	.	.	.	1d\	.	1f\	.
*custos:BB	*	*	*	*	*	*	*
!LO:TX:t=P:problem=kreska pseudotaktowa	!	!	!	!	!	!	!
4C/	.	.	.	.	.	.	.
!LO:LB:g=original	!	!LO:PB:g=original	!	!	!	!	!
=80-	=80-	=80-	=80-	=80-	=80-	=80-	=80-
2BB-/	.	1G	-lo-	.	.	.	.
!LO:TX:t=P:problem=kreska pseudotaktowa	!	!	!	!	!	!LO:TX:t=P:problem=kreska pseudotaktowa	!
2C/	.	.	.	1c	.	1.e	A-
!	!	!LO:TX:t=P:problem=kreska pseudotaktowa	!	!	!	!	!
2AA/	.	1F	-rum	.	.	.	.
*	*	*	*	*Xlig	*	*	*
2.BB-/	.	.	.	1B-X\	.	.	.
=81-	=81-	=81-	=81-	=81-	=81-	=81-	=81-
*	*	*lig	*	*	*	*	*
.	.	1F	A-	.	.	2d\	.
4C/	.	.	.	.	.	.	.
!LO:TX:t=P:problem=kreska pseudotaktowa	!	!	!	!LO:TX:t=P:problem=kreska pseudotaktowa	!	!	!
2D/	.	.	.	2A/	.	1d	.
2GG/	.	1E	.	2B-\	-men	.	.
*	*	*	*	*	*ij	*	*
4AA/	.	.	.	2A/	A-	2c#X/	.
4A\	.	.	.	.	.	.	.
*	*	*Xlig	*	*	*	*	*
=82-	=82-	=82-	=82-	=82-	=82-	=82-	=82-
2F#X\	.	[0Dl	-men.	2A/	.	[00dl;<	-men
!LO:TX:t=P:problem=kreska pseudotaktowa	!	!	!	!LO:TX:t=P:problem=kreska pseudotaktowa	!	!	!
2D/	.	.	.	2d\	.	.	.
2G\	.	.	.	2B-\	.	.	.
!LO:TX:t=P:problem=kreska pseudotaktowa	!	!	!	!	!	!	!
2F#X\	.	.	.	2A/	.	.	.
*	*	*Xlig	*	*	*	*	*
=83-	=83-	=83-	=83-	=83-	=83-	=83-	=83-
2B-\	.	0D_	.	2G/	.	.	.
!	!	!	!	!LO:TX:t=P:problem=kreska pseudotaktowa	!	!	!
2.A\	.	.	.	2F#X/	.	.	.
.	.	.	.	1B-X	.	.	.
8G\L	.	.	.	.	.	.	.
8Fny\J	.	.	.	.	.	.	.
2G\	.	.	.	.	.	.	.
=84-	=84-	=84-	=84-	=84-	=84-	=84-	=84-
!LO:TX:b:t=Rorate Ut Supra.	!	!LO:TX:b:t=Rorate Ut\nSupra.	!	!	!	!LO:TX:b:t=Rorate Ut\nSupra	!
!LO:N:vis=1	!	!	!	!	!	!	!
00F#X;<	-men	00D]	.	00A;;	-men	00d]	.
*	*	*	*	*	*Xij	*	*
==	==	==	==	==	==	==	==
*-	*-	*-	*-	*-	*-	*-	*-
!!!system-decoration: [s1,s2,s3,s4]
!!!RDF**kern: > = above
!!!RDF**kern: < = below
!!!RDF**kern: l = terminal long
!!!AIN: 1 alto 1 empty 1 tenor 1 vox
!!!ENC: Marta Lawrence
!!!END: 2021-03-05
!!!ENC: Tomasz Grochalski
!!!END: 2021-02-24
